!! 00000] TT[00
!! NN
!!!OTL: Jin zhu meimei
!!!ARE: Liaoning, Kazuo
!! Ethnic Group: Menggu
!! III, 257
!!!SCT: C0296
!!!YEM: Copyright 1995, estate of Helmut Schaffrath.
**kern
*ICvox
*Ivox
*M2/4
*k[b-e-]
*B-:
{4g
8g
8f
=1
8b-
8b-
8b-
8g
=2
8f
4f
8g
=3
4f
8f
8r}
=4
{8g
8b-
8b-
8g
=5
8b-
8b-
8cc
8ff
=6
4dd
8dd
8cc}
=7
{4ff
8ff
8dd
=8
4cc
8cc
8cc
=9
8dd
8cc
8dd
8ff
=10
4b-
8g
8b-}
=11
{4f
4f
=12
8g
8b-
8b-
8b-
=13
8cc
8dd
8b-
8g
=14
[2f
=15
4f]
4r}
==
!!!AGN: Xushi ge. Aiqing gushi
!! 
!!!ONB: ESAC (Essen Associative Code) Database: CHINA
!!!AMT: simple duple
!!!AIN: vox
!!!EED: Helmut Schaffrath
!!!EEV: 1.0
*-
!!!ONB: Tied note syntax fixed by Craig Sapp, 2004/05/03/
